svg/misc/mobile.svg

<svg width="480" height="512" viewBox="0 0 480 512" version="1.1" xmlns="http://www.w3.org/2000/svg"><path fill="currentColor" d="M226,480l-178,0c-26.51,0 -48,-21.49 -48,-48l0,-352c0,-26.51 21.49,-48 48,-48l178,0c26.51,0 48,21.49 48,48l0,352c0,26.492 -21.461,47.971 -48,48Zm-66,-64l-48,0c-8.852,0.015 -16,7.172 -16,16c0,8.837 7.163,16 16,16l48,0c8.837,0 16,-7.163 16,-16c0,-8.828 -7.148,-15.985 -16,-16Zm80,-304l-206,0l0,288l206,0l0,-288Zm126.215,14.221c6.628,-11.479 21.306,-15.412 32.785,-8.785c30.198,17.435 52.562,43.227 65.859,72.768c9.605,21.226 14.197,43.665 14.168,65.856c0.012,22.122 -4.568,44.488 -14.129,65.649c-13.292,29.578 -35.67,55.403 -65.898,72.855c-11.479,6.628 -26.157,2.695 -32.785,-8.784c-6.627,-11.479 -2.694,-26.158 8.785,-32.785c17.396,-10.043 31.078,-24.049 40.565,-40.219c0.138,-0.26 0.281,-0.519 0.43,-0.776c1.897,-3.285 3.608,-6.626 5.137,-10.012c6.473,-14.406 9.865,-30.084 9.887,-45.942c-0.009,-15.916 -3.413,-31.651 -9.918,-46.103c-1.521,-3.362 -3.222,-6.68 -5.106,-9.943c-0.148,-0.256 -0.291,-0.514 -0.428,-0.773c-9.487,-16.171 -23.17,-30.178 -40.567,-40.222c-11.479,-6.627 -15.412,-21.305 -8.785,-32.784Zm-15.215,74.353c-11.479,-6.627 -26.157,-2.694 -32.785,8.785c-6.627,11.479 -2.694,26.157 8.785,32.784c2.452,1.416 4.387,3.382 5.74,5.653c0.024,0.042 0.047,0.083 0.071,0.125c0.015,0.026 0.03,0.053 0.046,0.079c0.265,0.46 0.505,0.927 0.72,1.401c0.941,2.083 1.431,4.353 1.426,6.648c-0.009,2.234 -0.487,4.443 -1.392,6.475c-0.224,0.499 -0.475,0.992 -0.755,1.476c-0.04,0.07 -0.08,0.14 -0.119,0.21c-1.353,2.268 -3.287,4.232 -5.737,5.646c-11.479,6.628 -15.412,21.306 -8.785,32.785c6.628,11.479 21.306,15.412 32.785,8.785c12.103,-6.988 21.061,-17.332 26.375,-29.178c3.809,-8.443 5.636,-17.364 5.636,-26.188c0.016,-8.893 -1.822,-17.887 -5.674,-26.392c-5.319,-11.811 -14.263,-22.123 -26.337,-29.094Zm-207,-136.574l-16,0c-8.852,0.015 -16,7.173 -16,16c0,8.837 7.163,16 16,16l16,0c8.837,0 16,-7.163 16,-16c0,-8.827 -7.148,-15.985 -16,-16Z"></path></svg>

<svg width="480" height="512" viewBox="0 0 480 512" fill="none" xmlns="http://www.w3.org/2000/svg">
<path fill-rule="evenodd" clip-rule="evenodd" d="M0 80C0 53.4903 21.4903 32 48 32H226C252.51 32 274 53.4903 274 80V432C274 458.51 252.51 480 226 480H48C21.4903 480 0 458.51 0 432V80ZM34 112H240V400H34V112ZM128 64C119.163 64 112 71.1634 112 80C112 88.8366 119.163 96 128 96H144C152.837 96 160 88.8366 160 80C160 71.1634 152.837 64 144 64H128ZM96 432C96 423.163 103.163 416 112 416H160C168.837 416 176 423.163 176 432C176 440.837 168.837 448 160 448H112C103.163 448 96 440.837 96 432Z" fill="black"/>
<path d="M366.215 126.221C372.843 114.742 387.521 110.809 399 117.436C429.198 134.871 451.562 160.663 464.859 190.204C474.464 211.43 479.056 233.869 479.027 256.06C479.039 278.182 474.459 300.548 464.898 321.709C451.606 351.287 429.228 377.112 399 394.564C387.521 401.192 372.843 397.259 366.215 385.78C359.588 374.301 363.521 359.622 375 352.995C392.396 342.952 406.078 328.946 415.565 312.776C415.703 312.516 415.846 312.257 415.995 312C417.892 308.715 419.603 305.374 421.132 301.988C427.605 287.582 430.997 271.904 431.019 256.046C431.01 240.13 427.606 224.395 421.101 209.943C419.58 206.581 417.879 203.263 415.995 200C415.847 199.744 415.704 199.486 415.567 199.227C406.08 183.056 392.397 169.049 375 159.005C363.521 152.378 359.588 137.7 366.215 126.221Z" fill="black"/>
<path d="M351 200.574C339.521 193.947 324.843 197.88 318.215 209.359C311.588 220.838 315.521 235.516 327 242.143C329.452 243.559 331.387 245.525 332.74 247.796C332.764 247.838 332.787 247.879 332.811 247.921C332.826 247.947 332.841 247.974 332.857 248C333.122 248.46 333.362 248.927 333.577 249.401C334.518 251.484 335.008 253.754 335.003 256.049C334.994 258.283 334.516 260.492 333.611 262.524C333.387 263.023 333.136 263.516 332.856 264C332.816 264.07 332.776 264.14 332.737 264.21C331.384 266.478 329.45 268.442 327 269.856C315.521 276.484 311.588 291.162 318.215 302.641C324.843 314.12 339.521 318.053 351 311.426C363.103 304.438 372.061 294.094 377.375 282.248C381.184 273.805 383.011 264.884 383.011 256.06C383.027 247.167 381.189 238.173 377.337 229.668C372.018 217.857 363.074 207.545 351 200.574Z" fill="black"/>
</svg>
